img/star.svg

<svg width="28" height="28" viewBox="0 0 28 28" fill="none" xmlns="http://www.w3.org/2000/svg">
<path d="M18.0898 11C17.8256 11 17.5924 10.8272 17.5157 10.5744L14.574 0.890039C14.4017 0.32255 13.5982 0.322551 13.4258 0.890041L10.4842 10.5744C10.4074 10.8272 10.1743 11 9.91012 11H0.873698C0.289853 11 0.0499308 11.7493 0.52518 12.0884L7.9171 17.3632C8.12772 17.5135 8.21826 17.7819 8.14174 18.0291L5.29837 27.2125C5.12577 27.77 5.77001 28.2208 6.23462 27.8677L13.6371 22.2408C13.8516 22.0778 14.1484 22.0777 14.3629 22.2405L21.7814 27.8703C22.2461 28.223 22.8898 27.7722 22.7172 27.2149L19.873 18.0287C19.7966 17.7817 19.8869 17.5135 20.0973 17.3631L27.4775 12.0881C27.9523 11.7488 27.7123 11 27.1286 11H18.0898Z" fill="#F87C09"/>
</svg>

<svg width="28" height="28" fill="none" xmlns="http://www.w3.org/2000/svg"><path d="M18.09 11a.6.6 0 0 1-.574-.426L14.574.89c-.172-.567-.976-.567-1.148 0l-2.942 9.684A.6.6 0 0 1 9.91 11H.874c-.584 0-.824.75-.349 1.088l7.392 5.275a.6.6 0 0 1 .225.666l-2.844 9.183c-.172.558.472 1.009.937.656l7.402-5.627a.6.6 0 0 1 .726 0l7.418 5.63c.465.352 1.109-.099.936-.656l-2.844-9.186a.6.6 0 0 1 .224-.666l7.38-5.275c.475-.34.235-1.088-.348-1.088h-9.04Z" fill="#F87C09"/></svg>
